packages/netlify-cms-ui-default/src/Icon/images/media.svg

<svg height="24" viewBox="0 0 24 24" width="24" xmlns="http://www.w3.org/2000/svg"><path d="m21 15.25v-10.5c0-.9625-.7875-1.75-1.75-1.75h-10.5c-.9625 0-1.75.7875-1.75 1.75v10.5c0 .9625.7875 1.75 1.75 1.75h10.5c.9625 0 1.75-.7875 1.75-1.75zm-9.6412598-3.7727051 1.7872525 2.3940429 2.6148471-3.2774535 3.5216797 4.4170532h-10.56503903zm-8.3587402-4.4772949v12.25c0 .9625.7875 1.75 1.75 1.75h12.25v-1.9555664h-11.01940918c-.55228475 0-1-.4477153-1-1v-11.0444336z"/></svg>

<svg xmlns="http://www.w3.org/2000/svg" xmlns:xlink="http://www.w3.org/1999/xlink" width="24" height="24" viewBox="0 0 24 24"><path id="icon-media@2x-a" d="M21,15.25 L21,4.75 C21,3.7875 20.2125,3 19.25,3 L8.75,3 C7.7875,3 7,3.7875 7,4.75 L7,15.25 C7,16.2125 7.7875,17 8.75,17 L19.25,17 C20.2125,17 21,16.2125 21,15.25 Z M11.3587402,11.4772949 L13.1459927,13.8713378 L15.7608398,10.5938843 L19.2825195,15.0109375 L8.71748047,15.0109375 L11.3587402,11.4772949 Z M3,7 L3,19.25 C3,20.2125 3.7875,21 4.75,21 L17,21 L17,19.0444336 L5.98059082,19.0444336 L5.98059082,19.0444336 C5.42830607,19.0444336 4.98059082,18.5967183 4.98059082,18.0444336 L4.98059082,7 L3,7 Z"/></svg>
